!!!!SEGMENT: pl-sa--l-1643--078_anonim--veni-sponsa-christi.krn
!!!cenid: 16xx:1436
!!!COM: Anonim
!!!COM-rismid: pe30004985
!!!CDT:
!!!CNT:
!!!OTL: Veni sponsa Christi
!!!PDT:
!!!AGN: Sacred
!!!SMS-siglum: PL-SA
!!!SMS-shelfmark: L 1643
!!!SMS-shelfwork: 078 W
!!!SMS-variant:
!!!SMS-altvar:
!!!NIFC-rismid: 1001064774
!!!URL-scan: http://repozytorium.nifc.pl/skany/pl-sa-nut--l1643
!!!ONB-nifc: UWAGA: 8 ksiąg. Primi chori: 1mus Cantus (x), C 2dus (124-125), C 3tius (x), Bassus (x); Secondi chori: Primus Cantus (85-86), C 2dus (88-89), Altus (86-87), Bassus (88). UWAGA: Nie dodawać pustych linii, chyba że w rękopisie pojawiają się dodatkowe oznaczenia dotyczące pełnej obsady (a 4, a 8 itp.)
!!!key:
**kern	**text	**kern	**text	**kern	**text	**kern	**text	**kern	**text
*part5	*part5	*part4	*part4	*part3	*part3	*part2	*part2	*part1	*part1
*staff5	*staff5	*staff4	*staff4	*staff3	*staff3	*staff2	*staff2	*staff1	*staff1
*Iempty	*	*Iempty	*	*Iempty	*	*Iempty	*	*Iempty	*
*I"Baſsus 2di Chori	*	*I"Altus secundi Chori.	*	*I"Cantus 2dus Secundi Chori.	*	*I"Primus Cantus 2di Chori	*	*I"Cantus 2dus Primi Chori.	*
*I'II Coro B	*	*I'II Coro A	*	*I'II Coro S 2	*	*I'II Coro S 1	*	*I'I Coro S 2	*
*clefC3	*	*clefC2	*	*clefC1	*	*clefG2	*	*clefC1	*
*k[b-]	*	*k[b-]	*	*k[b-]	*	*k[b-]	*	*k[b-]	*
*F:	*	*F:	*	*F:	*	*F:	*	*F:	*
*M2/1	*	*M2/1	*	*M2/1	*	*M2/1	*	*M2/1	*
*met(C|)	*	*met(C|)	*	*met(C|)	*	*met(C|)	*	*met(C|)	*
=1-	=1-	=1-	=1-	=1-	=1-	=1-	=1-	=1-	=1-
!LO:TX:a:B:t=Pro Festo SS. Virginum:color=red	!	!LO:TX:a:B:t=Pro Festo SS. \nVirginum.:color=red	!	!LO:TX:a:B:t=Pro Festo SS \nVirginum.:color=red	!	!LO:TX:a:B:t=Pro Festo SS. Virgin(um):color=red	!	!LO:TX:a:t=Na panni ÿwdowij	!
00r	.	00r	.	00r	.	00r	.	00r	.
=2-	=2-	=2-	=2-	=2-	=2-	=2-	=2-	=2-	=2-
.	.	.	.	.	.	.	.	.	.
=3-	=3-	=3-	=3-	=3-	=3-	=3-	=3-	=3-	=3-
0r	.	0r	.	0r	.	0r	.	0r	.
=4-	=4-	=4-	=4-	=4-	=4-	=4-	=4-	=4-	=4-
1f	Ve-	0f	Ve-	0cc	Ve-	1cc	Ve-	1a	Ve-
1f	-ni	.	.	.	.	1a	-ni	0cc	-ni
=5-	=5-	=5-	=5-	=5-	=5-	=5-	=5-	=5-	=5-
4F/	spon-	1c	-ni	1a	-ni	1cc	spon-	.	.
4G/	.	.	.	.	.	.	.	.	.
4A/	.	.	.	.	.	.	.	.	.
4F/	.	.	.	.	.	.	.	.	.
1B-	.	1f	spon-	1b-	spon-	1dd	-sa	1b-	ſpon-
=6-	=6-	=6-	=6-	=6-	=6-	=6-	=6-	=6-	=6-
2F/	-sa	2c/	-sa	2a\	-sa	1cc	Chri-	2cc\	-sa
2c/	Chri-	2c/	Chri-	2g/	Chri-	.	.	2cc\	chriſ-
1f	-sti	1c	-sti	1a	-sti	1cc	-sti,	1a	-ti
=7-	=7-	=7-	=7-	=7-	=7-	=7-	=7-	=7-	=7-
00r	.	00r	.	00r	.	00r	.	00r	.
=8-	=8-	=8-	=8-	=8-	=8-	=8-	=8-	=8-	=8-
.	.	.	.	.	.	.	.	.	.
=9-	=9-	=9-	=9-	=9-	=9-	=9-	=9-	=9-	=9-
0r	.	0r	.	0r	.	0r	.	0r	.
=10-	=10-	=10-	=10-	=10-	=10-	=10-	=10-	=10-	=10-
!	!	!LO:SIC:v:t=custos c	!	!	!	!	!	!	!
1r	.	1r	.	1r	.	1r	.	1r	.
!	!	!LO:LB:g=original	!	!	!	!	!	!	!
2.F/	ac-	2.c/	ac-	2.a\	ac-	2.cc\	Ac-	2.cc\	ac-
4c/	-ci-	4g\	-ci-	4g/	-ci-	4cc\	-ci-	4g/	-ci-
=11-	=11-	=11-	=11-	=11-	=11-	=11-	=11-	=11-	=11-
!LO:SIC:v:t=custos f	!	!	!	!	!	!	!	!	!
2f\	-pe	2d/	-pe	2f/	-pe	2a/	-pe	2dd\	-pe
!LO:LB:g=original	!	!	!	!	!	!	!	!	!
2f\	co-	2f\	co-	2f/	co-	4b-/	co-	2dd\	co-
.	.	.	.	.	.	4a/	.	.	.
1c	-ro-	2f\	-ro-	1cc	-ro-	4g/	.	2g/	-ro-
.	.	.	.	.	.	4f/	.	.	.
.	.	2c/	.	.	.	2g/	-ro-	2cc\	.
=12-	=12-	=12-	=12-	=12-	=12-	=12-	=12-	=12-	=12-
!	!	!	!	!	!	!LO:SIC:v:t=custos ff	!	!	!
1f	-nam	1c	-nam	1cc	-nam	1a	-nam	1cc	-nam
!	!	!	!	!	!	!LO:LB:g=original	!	!	!
00r	.	00r	.	00r	.	00r	.	00r	.
=13-	=13-	=13-	=13-	=13-	=13-	=13-	=13-	=13-	=13-
.	.	.	.	.	.	.	.	.	.
=14-	=14-	=14-	=14-	=14-	=14-	=14-	=14-	=14-	=14-
.	.	.	.	.	.	.	.	.	.
0r	.	0r	.	0r	.	0r	.	0r	.
=15-	=15-	=15-	=15-	=15-	=15-	=15-	=15-	=15-	=15-
.	.	.	.	.	.	.	.	.	.
2.F/	ac-	2.f\	ac-	2.cc\	ac-	2.ff\	Ac-	2.a\	ac-
4F/	-ci-	4c/	-ci-	4cc\	-ci-	4ff\	-ci-	4a\	-ci-
!	!	!	!	!LO:LB:g=original	!	!	!	!	!
=16-	=16-	=16-	=16-	=16-	=16-	=16-	=16-	=16-	=16-
!	!	!	!	!	!	!	!	!LO:SIC:v:t=custos cc	!
2c/	-pe	2e/	-pe	2cc\	-pe	2ee\	-pe	2g/	-pe
!	!	!	!	!	!	!	!	!LO:LB:g=original	!
2c/	co-	2g\	co-	2g/	co-	2cc\	co-	2cc\	co-
1f	-ro-	1c	-ro-	2.a\	-ro-	1cc	-ro-	2cc\	-ro-
.	.	.	.	.	.	.	.	2a/	.
.	.	.	.	4b-\	.	.	.	.	.
=17-	=17-	=17-	=17-	=17-	=17-	=17-	=17-	=17-	=17-
1c	-nam	1c	-nam	1cc	-nam	1cc	-nam	1g	-nam
00r	.	00r	.	00r	.	00r	.	00r	.
=18-	=18-	=18-	=18-	=18-	=18-	=18-	=18-	=18-	=18-
.	.	.	.	.	.	.	.	.	.
=19-	=19-	=19-	=19-	=19-	=19-	=19-	=19-	=19-	=19-
.	.	.	.	.	.	.	.	.	.
0r	.	0r	.	0r	.	0r	.	0r	.
=20-	=20-	=20-	=20-	=20-	=20-	=20-	=20-	=20-	=20-
.	.	.	.	.	.	.	.	.	.
1r	.	1r	.	1r	.	1r	.	1r	.
=21-	=21-	=21-	=21-	=21-	=21-	=21-	=21-	=21-	=21-
2.F/	ac-	2.c/	ac-	2.a\	ac-	2.cc\	ac-	2.a\	ac-
4c/	-ci-	4e/	-ci-	4g/	-ci-	4cc\	-ci-	4cc\	-ci-
!	!	!	!	!	!	!	!	!LO:TX:b:t=P:problem:# below	!
!	!	!	!	!	!	!	!	!LO:N:acc=#	!
2g\	-pe	2g\	-pe	2.g/	-pe	2dd\	-pe	2bn\	-pe
2c/	co-	2e/	co-	.	.	2ee\	co-	2cc\	co-
.	.	.	.	4cc\	co-	.	.	.	.
=22-	=22-	=22-	=22-	=22-	=22-	=22-	=22-	=22-	=22-
!	!	!LO:SIC:v:t=custos c	!	!	!	!	!	!	!
2g\	-ro-	1g	-ro-	2b-\	-ro-	2dd\	-ro-	2g/	-ro-
!	!	!	!	!LO:TX:b:t=P:problem:# below	!	!	!	!	!
2c/	.	.	.	2cc#X\	.	2cc\	.	2cc\	.
!	!	!LO:PB:g=original	!	!	!	!	!	!	!
1f	-nam	1c	-nam	1a	-nam	1cc	-nam	1cc,	-nam
=23-	=23-	=23-	=23-	=23-	=23-	=23-	=23-	=23-	=23-
!LO:SIC:v:t=custos f	!	!	!	!	!	!	!	!	!
0r	.	0r	.	0r	.	0r	.	2.cc\	ac-
.	.	.	.	.	.	.	.	4cc\	-ci-
.	.	.	.	.	.	.	.	2cc\	-pe
.	.	.	.	.	.	.	.	2cc\	co-
!LO:LB:g=original	!	!	!	!	!	!	!	!	!
=24-	=24-	=24-	=24-	=24-	=24-	=24-	=24-	=24-	=24-
2.f\	ac-	2.a\	ac-	2.ccny\	ac-	2.ff\	Ac-	1cc	-ro-
!	!	!	!	!	!	!LO:N:vis=4	!	!	!
4f\	-ci-	4f\	-ci-	4cc\	-ci-	8ff\	-ci-	.	.
!	!	!	!	!	!	!LO:N:vis=4	!	!	!
.	.	.	.	.	.	8cc\	.	.	.
2c/	-pe	2g\	-pe	2cc\	-pe	2ee\	-pe	1cc	-nam
!	!	!	!	!	!	!LO:SIC:v:t=custos ff	!	!	!
2c/	co-	2g\	co-	2cc\	co-	2ee\	co-	.	.
!	!	!	!	!	!	!LO:PB:g=original	!	!	!
=25-	=25-	=25-	=25-	=25-	=25-	=25-	=25-	=25-	=25-
4F/	-ro-	1a	-ro-	1cc	-ro-	1ff	-ro-	2.cc\	ac-
4G/	.	.	.	.	.	.	.	.	.
4A/	.	.	.	.	.	.	.	.	.
!	!	!	!	!	!	!	!	!LO:SIC:v:t=custos cc	!
4B-/	.	.	.	.	.	.	.	4cc\	-ci-
!	!	!	!	!LO:SIC:v:t=custos cc	!	!	!	!LO:LB:g=original	!
1c,	-nam,	1g	-nam	1cc	-nam	1ee	-nam	2cc\	-pe
.	.	.	.	.	.	.	.	2cc\	co-
!	!	!	!	!LO:PB:g=original	!	!	!	!	!
=26-	=26-	=26-	=26-	=26-	=26-	=26-	=26-	=26-	=26-
2.f\	ac-	2.a\	ac-	2.cc\	ac-	2.ff\	ac-	1cc	-ro-
4f\	-ci-	4f\	-ci-	4cc\	-ci-	4cc\	-ci-	.	.
2c/	-pe	2g\	-pe	2cc\	-pe	2ee\	-pe	1cc,	-nam
2c/	co-	2g\	co-	2cc\	co-	2ee\	co-	.	.
=27-	=27-	=27-	=27-	=27-	=27-	=27-	=27-	=27-	=27-
4F/	-ro-	1a	-ro-	1cc	-ro-	1ff	-ro-	2.cc\	ac-
4G/	.	.	.	.	.	.	.	.	.
4A/	.	.	.	.	.	.	.	.	.
4B-/	.	.	.	.	.	.	.	4cc\	-ci-
1c	-nam	1g	-nam,	1cc	-nam	1ee	-nam	2cc\	-pe
.	.	.	.	.	.	.	.	2cc\	co-
=28-	=28-	=28-	=28-	=28-	=28-	=28-	=28-	=28-	=28-
1r	.	1r	.	1r	.	1r	.	1cc	-ro-
4r	.	4r	.	4r	.	4r	.	2cc\	-nam
4c/	quam	4e/	quam	4g/	quam	4cc\	quam	.	.
4c/	ti-	4e/	ti-	4g/	ti-	4cc\	ti-	2r	.
4c/	-bi	4e/	-bi	4g/	-bi	4cc\	-bi	.	.
=29-	=29-	=29-	=29-	=29-	=29-	=29-	=29-	=29-	=29-
4.B-/	D(o)-	4.f\	Do-	4.b-\	Do-	4.dd\	Do-	2r	.
!	!	!LO:SIC:v:t=custos f	!	!	!	!	!	!	!
8B-/	-(mi)-	8f\	-mi-	8b-\	-mi-	8dd\	-mi-	.	.
!LO:SIC:v:t=custos c	!	!LO:LB:g=original	!	!	!	!	!	!	!
2B-/	-nus	2f\	-nus	2b-\	-nus	2dd\	-nus	4r	.
.	.	.	.	.	.	.	.	4b-y\	quam
!LO:LB:g=original	!	!	!	!	!	!	!	!	!
1r	.	1r	.	1r	.	1r	.	4b-\	ti-
.	.	.	.	.	.	.	.	4dd\	-bi
.	.	.	.	.	.	.	.	4.cc\	do-
.	.	.	.	.	.	.	.	8cc\	-mi-
=30-	=30-	=30-	=30-	=30-	=30-	=30-	=30-	=30-	=30-
4r	.	4r	.	4r	.	4r	.	2cc\	-nus
4c/	quam	4g\	quam	4cc\	quam	4ee\	quam	.	.
4c/	ti-	4g\	ti-	4cc\	ti-	4ee\	ti-	2r	.
4c/	-bi	4e/	-bi	4g/	-bi	4ee\	-bi	.	.
4.A/	Do-	4.e/	Do-	4.a\	Do-	4.cc\	Do-	2r	.
!	!	!	!	!	!	!LO:SIC:v:t=custos cc	!	!	!
8A/	-mi-	8e/	-mi-	8a\	-mi-	8cc\	-mi-	.	.
!	!	!	!	!LO:SIC:v:t=custos a	!	!LO:LB:g=original	!	!	!
2A/	-nus	2e/	-nus	2a\	-nus	2cc\	-nus	4r	.
!	!	!	!	!	!	!	!	!LO:SIC:v:t=custos cc	!
.	.	.	.	.	.	.	.	4cc\	quam
!	!	!	!	!LO:LB:g=original	!	!	!	!LO:LB:g=original	!
=31-	=31-	=31-	=31-	=31-	=31-	=31-	=31-	=31-	=31-
1r	.	1r	.	1r	.	1r	.	4cc\	ti-
.	.	.	.	.	.	.	.	4cc\	-bi
.	.	.	.	.	.	.	.	4.dd\	do-
.	.	.	.	.	.	.	.	8dd\	-mi-
2r	.	2r	.	2r	.	2r	.	2cc\	-nus
4f\	prae-	4f\	prae-	4a\	prae-	4cc\	prae-	4a\	prae-
4f\	-pa-	4f\	-pa-	4a\	-pa-	4cc\	-pa-	4cc\	-pa-
=32-	=32-	=32-	=32-	=32-	=32-	=32-	=32-	=32-	=32-
4B-/	-ra-	1d	-ra-	1b-	-ra-	1dd	-ra-	1b-	-ra-
4c/	.	.	.	.	.	.	.	.	.
4d\	.	.	.	.	.	.	.	.	.
4e\	.	.	.	.	.	.	.	.	.
2f\	-uit	2f\	-vit	2a\	-uit	2cc\	-uit	2cc\	-uit
2r	.	2r	.	2r	.	2r	.	2r	.
=33-	=33-	=33-	=33-	=33-	=33-	=33-	=33-	=33-	=33-
0r	.	0r	.	0r	.	0r	.	0r	.
=34-	=34-	=34-	=34-	=34-	=34-	=34-	=34-	=34-	=34-
2r	.	2r	.	2r	.	2r	.	2r	.
4d\	prae-	4f\	prae-	4a\	prae-	4dd\	prae-	4dd\	prae-
4d\	-pa-	4f\	-pa-	4a\	-pa-	4dd\	-pa-	4dd\	-pa-
!	!	!	!	!	!	!	!	!LO:TX:b:t=P:problem:# below	!
1a	-ra-	1e	-ra-	1a	-ra-	1ee	-ra-	1cc#X	-ra-
=35-	=35-	=35-	=35-	=35-	=35-	=35-	=35-	=35-	=35-
!	!	!LO:TX:b:t=P:problem:# below	!	!	!	!	!	!	!
2d\	-uit	2f#X\	-vit	2a\	-uit	2dd\	-uit	2dd\	-uit
2r	.	2r	.	2r	.	2r	.	2r	.
0r	.	0r	.	0r	.	0r	.	0r	.
=36-	=36-	=36-	=36-	=36-	=36-	=36-	=36-	=36-	=36-
.	.	.	.	.	.	.	.	.	.
2r	.	2r	.	2r	.	2r	.	2r	.
4c/	prae-	4e/	prae-	4g/	prae-	4ee\	prae-	4ccny\	prae-
4c/	-pa-	4e/	-pa-	4g/	-pa-	4ee\	-pa-	4cc\	-pa-
=37-	=37-	=37-	=37-	=37-	=37-	=37-	=37-	=37-	=37-
!LO:SIC:v:t=custos c	!	!LO:SIC:v:t=custos c	!	!	!	!	!	!	!
1f	-ra-	1c	-ra-	1a	-ra-	1ff	-ra-	1cc	-ra-
!LO:LB:g=original	!	!LO:LB:g=original	!	!	!	!	!	!	!
2c/	-uit	2c/	-uit	2g/	-uit	2ee\	-uit	2cc\	-uit
2r	.	2r	.	2r	.	2r	.	2r	.
=38-	=38-	=38-	=38-	=38-	=38-	=38-	=38-	=38-	=38-
0r	.	0r	.	0r	.	0r	.	0r	.
=39-	=39-	=39-	=39-	=39-	=39-	=39-	=39-	=39-	=39-
2r	.	2r	.	2r	.	2r	.	2r	.
2B-/	in	2fny\	in	2b-\	in	2b-/	in	2dd\	in
!	!	!	!	!	!	!	!	!LO:SIC:v:t=custos a	!
4B-/	ae-	1d	ae-	2.b-\	ae-	1dd	ae-	1dd	ae-
4c/	.	.	.	.	.	.	.	.	.
4d\	.	.	.	.	.	.	.	.	.
4e\	.	.	.	8a\L	-ter-	.	.	.	.
.	.	.	.	8g\J	.	.	.	.	.
!	!	!	!	!	!	!	!	!LO:PB:g=original	!
=40-	=40-	=40-	=40-	=40-	=40-	=40-	=40-	=40-	=40-
!	!	!	!	!LO:SIC:v:t=custos b-	!	!LO:SIC:v:t=custos b-	!	!	!
1f	-ter-	1f	-ter-	1a	.	1cc	-ter-	1a	-ter-
!	!	!	!	!LO:LB:g=original	!	!LO:LB:g=original	!	!	!
2B-/	-num	2f\	-num	2b-\	-num	2b-/	-num	2dd\	-num
*	*ij	*	*	*	*	*	*	*	*
2B-/	in	1f\	in	2b-\	in	2dd\	in	2b-\	in
=41-	=41-	=41-	=41-	=41-	=41-	=41-	=41-	=41-	=41-
2f\	ae-	.	.	2.a\	ae-	1cc	ae-	1cc	ae-
4e\	.	2c/	ae-	.	.	.	.	.	.
4d\	.	.	.	4b-\	.	.	.	.	.
0c	-ter-	0c	-ter-	1.cc	-ter-	0cc	-ter-	1.g	-ter-
=42-	=42-	=42-	=42-	=42-	=42-	=42-	=42-	=42-	=42-
.	.	.	.	.	.	.	.	.	.
.	.	.	.	2g/	.	.	.	2cc\	.
0f;;l	-num	0c;l	-num.	0a;;l	-num.	0ccl	-num.	0al	-num;
*	*Xij	*	*	*	*	*	*	*	*
==	==	==	==	==	==	==	==	==	==
*-	*-	*-	*-	*-	*-	*-	*-	*-	*-
!!!system-decoration: [s1][s2,s3,s4,s5]
!!!RDF**kern: l = terminal long
!!!AIN: 5 empty
!!!ENC: Andrzej Gręziak
!!!END: 2021-10-19
!!!ENC: Marta Lawrence
!!!END: 2021-10-22
